X:177
T: Muede kehrt ein Wandersmann zurueck
N: D1008
O: Europa, Mitteleuropa, Deutschland, Hessen, Hanauer Kinzigtal,
N: DVA-Signatur A 46 222
R: Liebes - Lied
M: 4/4
L: 1/8
K: G
DG | B3AGFGB | D4z2
DG | A3GFAed | B4z2
GA | B2d2cBAG | E4z2
GE | D3GFAed | B4z2
GA | B2d2cBAG | E4z2
GE | D3GFAed | B4z2

@@@ Tune index: 2699
